X:116
T:Summer Dance. THO5.116, The
M:6/8
L:1/8
B:Thompson's Complete Collection of 200 Favourite Dances Vol.5
F:https://www.libraryofdance.org/manuals/1780c-Thompson-Compleat-5.pdf
Z:vmp. Peter Dunk 2024
Q:3/8=100
K:G
D2D|GFG ABc|dBG e2e|dfg dBG|AFD D2D|
GFG ABc|dBG e2e|dfg BcA|G3:|
|:B2 [BB,]|[c2C2]c cea|cBA A2[AA,]|[B2B,2]B Bdg|
BAG D2D|GFG ABc|dBG e2e|dfg BcA|G3:|
W:
W:The 1st Couple set to the 2nd Lady
W:and not turn, the same to the 2nd Gent ./.
W:First & 2nd Couples change sides & back again ./:
W:Lead down the middle, up again & cast off :/.
W:Right and Left :/:

